X:290
T:Lads of Laois
M:C|
L:1/8
Q:120
R:Reel (Key of Em)
K:Em
"Em"EB,~B,2 EGFE | "D"DA,~A,2 DEFD | "Em"GEED EFGA | "D"B2e^c dBAF |
"Em"EB,~B,2 "A"EGFE | "D"DA,~A,2 DEFD | "Em"~E2BE dEBE | "D"DEFA "Em"BE ~E2 |
EB,~B,2 EGFE | "D"DA,~A,2 DEFD | "Em"GEED EFGA | "D"B2e^c dBAF |
"Em"~E2B,E "A"GEB,E | "D"~D2A,D FDA,D | ("Em"(3Bcd e^c dBAF | "D"DEFA "Em"BE ~E2|:
"Em"eB~B2 egfe | "D"defa gfed | "Em"Bded efge | "D"fgaf gfed |
"Em"eB ~B2 "G"GB"D"FB | "Em"EB ~B2 (3Bcd ef | "C"~g3e "D"~f3d |1 "Bm"efed BABd :|2 "Bm"efed BAFD |]
